public/media/approved_amplifyberlin_logo.svg

<?xml version="1.0" encoding="utf-8"?>
<!-- Generator: Adobe Illustrator 24.3.0, SVG Export Plug-In . SVG Version: 6.00 Build 0)  -->
<svg version="1.1" id="Ebene_1" xmlns="http://www.w3.org/2000/svg" xmlns:xlink="http://www.w3.org/1999/xlink" x="0px" y="0px"
	 width="402.2px" height="164.7px" viewBox="0 0 402.2 164.7" style="enable-background:new 0 0 402.2 164.7;" xml:space="preserve"
	>
<style type="text/css">
	.st0{fill:#010202;}
</style>
<g>
	<polygon class="st0" points="120.7,98.5 120.7,87.3 65.2,87.3 65.2,109.2 65.2,164.7 120.7,164.7 120.7,153.5 76.3,153.5 
		76.3,142.5 120.7,142.5 120.7,131.3 76.3,131.3 76.3,120.4 120.7,120.4 120.7,109.2 76.3,109.2 76.3,98.5 	"/>
	<path class="st0" d="M158.1,87.3h-27.7v21.9v5v50.5h11.1v-22.2h16.6h5.5v22.2h11.1v-22.2h11.1v-28.2v-5v-22H158.1L158.1,87.3z
		 M174.8,130.7h-16.6h-16.6v-11.1h16.6h16.6V130.7z M158.1,109.2h-16.6V97.7h16.6h16.6v11.5H158.1z"/>
	<path class="st0" d="M195.6,87.2h11.1v66.3H251v11.2h-55.5L195.6,87.2L195.6,87.2z"/>
	<path class="st0" d="M260.7,87.2h11.1v77.5h-11.1V87.2z"/>
	<path class="st0" d="M55.5,87.3H44.4H0v21.9v55.5h44.4h11.1l0,0V87.3L55.5,87.3z M11.1,98.5h33.3v10.7H11.1V98.5z M11.1,120.4h33.3
		v11H11.1V120.4z M11.1,153.5v-11h33.3v11H11.1z"/>
	<path class="st0" d="M281.5,87.2H337v77.5h-11.1V98.4h-33.3v66.3h-11.1V87.2L281.5,87.2z"/>
</g>
<g>
	<path class="st0" d="M98.5,77.5H87.4V11.2H76.3v66.3H65.2V0h55.5v77.5h-11.1V11.2H98.5V77.5L98.5,77.5z"/>
	<path class="st0" d="M195.6,0h11.1v66.3H251v11.2h-55.5L195.6,0L195.6,0z"/>
	<polygon class="st0" points="260.7,0 260.7,22 260.7,55.5 260.7,77.5 271.8,77.5 271.8,55.5 271.8,22 271.8,0 	"/>
	<g>
		<polygon class="st0" points="337,11.2 337,0 281.5,0 281.5,22 281.5,55.5 281.5,77.5 292.6,77.5 292.6,55.5 292.6,55.3 337,55.3 
			337,43.5 292.6,43.5 292.6,32.3 337,32.3 337,22 292.6,22 292.6,11.2 		"/>
		<path class="st0" d="M346.7,0h11.1v44.1h33.3V0h11.1v77.5h-55.5V66.3h44.4v-11h-44.4V0L346.7,0z"/>
	</g>
	<path class="st0" d="M158.2,0h-27.7v22v0.6v55h11.1V55.3h16.6h27.7V25.5V22V0H158.2z M174.8,43.5h-16.6h-16.6V32.3h16.6h16.6V43.5z
		 M141.5,22V10.4h33.3V22H141.5L141.5,22z"/>
	<path class="st0" d="M55.5,0H27.7H0v22v55.5h11.1V55.3h16.6h16.6v22.2h11.1V22L55.5,0L55.5,0z M44.4,43.5H27.7H11.1V32.4h16.6h16.6
		L44.4,43.5L44.4,43.5z M27.7,22H11.1V10.4h16.6h16.6V22H27.7z"/>
</g>
</svg>

<svg width="403" height="165" viewBox="0 0 403 165" fill="none" xmlns="http://www.w3.org/2000/svg">
<g clip-path="url(#clip0_2_34)">
<path d="M120.7 98.5V87.3H65.2V109.2V164.7H120.7V153.5H76.3V142.5H120.7V131.3H76.3V120.4H120.7V109.2H76.3V98.5H120.7Z" fill="white"/>
<path d="M158.1 87.3H130.4V109.2V114.2V164.7H141.5V142.5H158.1H163.6V164.7H174.7V142.5H185.8V114.3V109.3V87.3H158.1ZM174.8 130.7H158.2H141.6V119.6H158.2H174.8V130.7ZM158.1 109.2H141.5V97.7H158.1H174.7V109.2H158.1Z" fill="white"/>
<path d="M195.6 87.2H206.7V153.5H251V164.7H195.5L195.6 87.2Z" fill="white"/>
<path d="M260.7 87.2H271.8V164.7H260.7V87.2Z" fill="white"/>
<path d="M55.5 87.3H44.4H0V109.2V164.7H44.4H55.5V87.3ZM11.1 98.5H44.4V109.2H11.1V98.5ZM11.1 120.4H44.4V131.4H11.1V120.4ZM11.1 153.5V142.5H44.4V153.5H11.1Z" fill="white"/>
<path d="M281.5 87.2H337V164.7H325.9V98.4H292.6V164.7H281.5V87.2Z" fill="white"/>
<path d="M98.5 77.5H87.4V11.2H76.3V77.5H65.2V0H120.7V77.5H109.6V11.2H98.5V77.5Z" fill="white"/>
<path d="M195.6 0H206.7V66.3H251V77.5H195.5L195.6 0Z" fill="white"/>
<path d="M260.7 0V22V55.5V77.5H271.8V55.5V22V0H260.7Z" fill="white"/>
<path d="M337 11.2V0H281.5V22V55.5V77.5H292.6V55.5V55.3H337V43.5H292.6V32.3H337V22H292.6V11.2H337Z" fill="white"/>
<path d="M346.7 0H357.8V44.1H391.1V0H402.2V77.5H346.7V66.3H391.1V55.3H346.7V0Z" fill="white"/>
<path d="M158.2 0H130.5V22V22.6V77.6H141.6V55.3H158.2H185.9V25.5V22V0H158.2ZM174.8 43.5H158.2H141.6V32.3H158.2H174.8V43.5ZM141.5 22V10.4H174.8V22H141.5Z" fill="white"/>
<path d="M55.5 0H27.7H0V22V77.5H11.1V55.3H27.7H44.3V77.5H55.4V22L55.5 0ZM44.4 43.5H27.7H11.1V32.4H27.7H44.3L44.4 43.5ZM27.7 22H11.1V10.4H27.7H44.3V22H27.7Z" fill="white"/>
</g>
<defs>
<clipPath id="clip0_2_34">
<rect width="402.2" height="164.7" fill="white"/>
</clipPath>
</defs>
</svg>
